X: 1
T: Polska fr\aan Malung
O: efter Andrea Hoag
R: polska
S: Andrea Hoag's 5th workshop 10/6/93 A-5
Z: 2006 John Chambers <jc@trillian.mit.edu>
N: handwritten MS
M: 3/4
L: 1/8
K: G
|: d>c B>G B>d | dcB c>d c>B | A>g f>d f>a |1 (3agf g>a (3gfe :|2 (3agf "fine"g4 |]
|: d>g b>f g>B | c>d e>B c>B | A>g f>d f>a |1 (3agf g>a (3gfe :|2 (3agf g4 |]
